src/assets/icons/stroke/image.svg

<svg xmlns="http://www.w3.org/2000/svg" width="1em" height="1em" fill="none"><path fill="currentColor" d="m14.2 11 3.8 5H6l3-3.9 2.1 2.7L14 11h.2Zm-5.7 0c.8 0 1.5-.7 1.5-1.5S9.3 8 8.5 8 7 8.7 7 9.5 7.7 11 8.5 11ZM22 6v12a2 2 0 0 1-2 2H4a2 2 0 0 1-2-2V6c0-1.1.9-2 2-2h16a2 2 0 0 1 2 2Zm-2 2.8V6H4v12h16V8.8Z"/></svg>

<svg width="1em" height="1em" viewBox="0 0 24 24" fill="none" xmlns="http://www.w3.org/2000/svg">
<path d="M14.2 11L18 16H6L9 12.1L11.1 14.8L14 11H14.2ZM8.5 11C9.3 11 10 10.3 10 9.5C10 8.7 9.3 8 8.5 8C7.7 8 7 8.7 7 9.5C7 10.3 7.7 11 8.5 11ZM22 6V18C22 19.1 21.1 20 20 20H4C2.9 20 2 19.1 2 18V6C2 4.9 2.9 4 4 4H20C21.1 4 22 4.9 22 6ZM20 8.8V6H4V18H20V8.8Z" fill="currentColor"/>
</svg>
